images/no-to_logo.svg

<?xml version="1.0" encoding="UTF-8"?>
<svg id="_レイヤー_2" data-name="レイヤー 2" xmlns="http://www.w3.org/2000/svg" viewBox="0 0 348.22 177.96">
  <defs>
    <style>
      .cls-1 {
        fill: #000;
        stroke-width: 0px;
      }
    </style>
  </defs>
  <g id="_レイヤー_1-2" data-name="レイヤー 1">
    <g>
      <path class="cls-1" d="M.8,116.75l-.8-.6c.15-.2,14.79-19.64,35.62-33.53,9.07-6.05,27.65-16.7,50.2-20.08,18.19-2.73,35.09-1.71,50.22,3.02,14.19,4.43,26.96,11.3,29.6,12.76,1.2-2.95,7.34-17.72,14.82-30.54,7.8-13.37,25.28-31.66,45.23-40.21,6.23-2.67,29.05-10.99,61.27-6.03,20.61,3.17,39.04,14.64,44.2,18.08,5.95,3.97,16.93,12.94,17.04,13.03l-.63.77c-.11-.09-11.05-9.03-16.96-12.97-5.12-3.41-23.39-14.78-43.8-17.92-31.96-4.92-54.56,3.32-60.73,5.97-19.74,8.46-37.05,26.56-44.76,39.79-8.27,14.18-14.9,30.77-14.97,30.93l-.21.54-.5-.29c-.14-.08-14.14-8.03-29.9-12.96-14.99-4.68-31.74-5.69-49.78-2.98-22.36,3.35-40.8,13.92-49.8,19.92C15.49,97.25.95,116.56.8,116.75Z"/>
      <path class="cls-1" d="M283.97,54.84c.75-1.47,2.85-5.81,3.7-10.08,1.05-5.25,0-10.5-3.15-12.6-1.95-1.3-5.25-1.05-6.37,0-1.67,1.57-3.08,3.15-4.13,9.45-.57,3.39-.39,7.29-.2,9.58-.79-.08-1.6-.13-2.42-.13s-1.62.05-2.42.13c.19-2.29.36-6.19-.2-9.58-1.05-6.3-2.46-7.88-4.13-9.45-1.12-1.05-4.41-1.3-6.37,0-3.15,2.1-4.2,7.35-3.15,12.6.85,4.27,2.95,8.61,3.7,10.08-5.42,3.62-8.96,9.51-8.96,16.17,0,11.02,9.64,19.95,21.52,19.95s21.53-8.93,21.53-19.95c0-6.66-3.54-12.55-8.96-16.17Z"/>
      <g>
        <path class="cls-1" d="M78.17,112.36c3.37-5.9,7.13-8.12,13.49-8.12,4.83,0,7.97,1.46,10.04,4.75,1.46,2.22,1.99,4.9,1.99,9.58v15.86c0,7.2.38,7.74,5.59,7.89v1.69h-17.4v-1.69c2.53-.08,3.91-.38,4.52-1.15.46-.61.69-1.23.77-2.53.08-.84.23-3.68.23-4.21v-15.4c0-3.83-.38-6.51-1.23-8.28-1.23-2.68-3.52-4.06-6.74-4.06-3.6,0-6.51,1.69-8.66,5.13-1.61,2.53-2.61,6.21-2.61,9.35v13.26c0,7.2.38,7.74,5.59,7.89v1.69h-17.47v-1.69c5.13-.15,5.59-.77,5.59-7.89v-20.54c0-5.75-.92-6.9-5.29-6.9v-1.69l11.57-.84v7.89Z"/>
        <path class="cls-1" d="M120.31,109.37c3.22-3.29,8.05-5.13,13.33-5.13,11.19,0,18.54,7.89,18.54,19.92,0,12.8-7.36,20.84-19,20.84s-18.47-7.89-18.47-19.77c0-6.36,2.07-12.26,5.59-15.86ZM133.41,143.17c7.51,0,11.65-6.51,11.65-18.31s-4.29-18.85-11.8-18.85-11.42,6.51-11.42,18.24,4.21,18.93,11.57,18.93Z"/>
        <path class="cls-1" d="M160,120.1h16.93v4.21h-16.93v-4.21Z"/>
        <path class="cls-1" d="M195.32,133.13c0,4.52.23,6.51,1,7.59.77,1.07,1.99,1.61,3.75,1.61s3.14-.38,4.83-1.38l.69,1.99c-2.53,1.3-4.98,1.92-7.74,1.92-3.75,0-6.59-1.3-7.89-3.75-.84-1.53-1.07-3.22-1.07-8.89v-24.83h-4.83v-1.76c4.52-.38,6.82-3.37,7.97-10.57l3.53-1c-.15,3.29-.23,6.21-.23,11.26h9.2v2.07h-9.2v25.75Z"/>
        <path class="cls-1" d="M216.01,109.37c3.22-3.29,8.05-5.13,13.33-5.13,11.19,0,18.54,7.89,18.54,19.92,0,12.8-7.36,20.84-19,20.84s-18.47-7.89-18.47-19.77c0-6.36,2.07-12.26,5.59-15.86ZM229.12,143.17c7.51,0,11.65-6.51,11.65-18.31s-4.29-18.85-11.8-18.85-11.42,6.51-11.42,18.24,4.21,18.93,11.57,18.93Z"/>
      </g>
      <g>
        <path class="cls-1" d="M81.15,166.47c.02,1.6.16,2.52.53,3.47.67,1.71,1.8,2.54,3.47,2.54s2.89-.86,3.81-2.61l.53.3c-1.04,2.13-2.61,3.12-4.88,3.12-3.31,0-5.57-2.45-5.57-5.99,0-3.75,2.22-6.31,5.48-6.31,2.1,0,3.7,1.06,4.42,2.94.23.62.32,1.18.37,2.54h-8.16ZM87.3,165.85c-.02-1.22-.14-1.9-.44-2.57-.51-1.13-1.29-1.71-2.38-1.71s-2.03.62-2.66,1.8c-.35.67-.49,1.27-.62,2.47h6.1Z"/>
        <path class="cls-1" d="M94.58,169.71c0,1.36.07,1.97.3,2.29.23.32.6.49,1.13.49s.95-.12,1.46-.42l.21.6c-.76.39-1.5.58-2.33.58-1.13,0-1.99-.39-2.38-1.13-.25-.46-.32-.97-.32-2.68v-7.49h-1.46v-.53c1.36-.12,2.06-1.02,2.4-3.19l1.06-.3c-.05.99-.07,1.87-.07,3.4h2.77v.62h-2.77v7.77Z"/>
        <path class="cls-1" d="M101.28,166.47c.02,1.6.16,2.52.53,3.47.67,1.71,1.8,2.54,3.47,2.54s2.89-.86,3.81-2.61l.53.3c-1.04,2.13-2.61,3.12-4.88,3.12-3.31,0-5.57-2.45-5.57-5.99,0-3.75,2.22-6.31,5.48-6.31,2.1,0,3.7,1.06,4.42,2.94.23.62.32,1.18.37,2.54h-8.16ZM107.43,165.85c-.02-1.22-.14-1.9-.44-2.57-.51-1.13-1.29-1.71-2.38-1.71s-2.03.62-2.66,1.8c-.35.67-.49,1.27-.62,2.47h6.1Z"/>
        <path class="cls-1" d="M114.69,161.06c.05,1.16.07,1.46.07,1.94v.74c.76-1.76,2.01-2.75,3.38-2.75.99,0,1.76.62,1.76,1.43,0,.58-.49.95-1.23.95-.51,0-.72-.14-.86-.58-.14-.51-.28-.65-.65-.65-.6,0-1.25.51-1.73,1.39-.42.76-.62,1.71-.62,2.94v3.63c0,2.17.12,2.33,1.66,2.38v.51h-5.29v-.51c1.55-.05,1.69-.23,1.69-2.38v-6.2c0-1.73-.28-2.08-1.59-2.08v-.51l3.42-.25Z"/>
        <path class="cls-1" d="M124.21,163.44c1.02-1.78,2.15-2.45,4.07-2.45,1.46,0,2.4.44,3.03,1.43.44.67.6,1.48.6,2.89v4.79c0,2.17.12,2.33,1.69,2.38v.51h-5.25v-.51c.76-.02,1.18-.12,1.36-.35.14-.18.21-.37.23-.76.02-.25.07-1.11.07-1.27v-4.65c0-1.16-.12-1.96-.37-2.5-.37-.81-1.06-1.22-2.03-1.22-1.09,0-1.96.51-2.61,1.55-.49.76-.79,1.87-.79,2.82v4c0,2.17.12,2.33,1.69,2.38v.51h-5.27v-.51c1.55-.05,1.69-.23,1.69-2.38v-6.2c0-1.73-.28-2.08-1.6-2.08v-.51l3.49-.25v2.38Z"/>
        <path class="cls-1" d="M146.01,172.94c-.9.14-1.92.23-2.38.23-.69,0-.88-.37-.97-1.92-.37.42-.67.67-1.13.99-1.02.74-1.83.99-3.01.99-1.02,0-1.78-.23-2.36-.72-.62-.55-1.02-1.48-1.02-2.45,0-1.83,1.16-3,3.4-3.51,1.2-.28,2.43-.44,4.11-.55v-1.46c0-1.06-.09-1.62-.32-2.1-.3-.6-.95-.9-1.9-.9-1.53,0-2.31.69-2.4,2.13-.02.49-.07.65-.25.79-.16.12-.46.18-.81.18-.79,0-1.13-.21-1.13-.69,0-.83.6-1.66,1.57-2.22.88-.49,2.01-.74,3.38-.74,1.48,0,2.54.35,3.1,1.02.46.58.67,1.34.67,2.61q0,.07-.05,2.33l-.02,2.2-.02,1.06c0,.97.12,1.8.25,1.99s.42.25,1.29.25v.49ZM142.66,166.54c-2.06.19-2.96.37-3.88.83-1.02.49-1.55,1.41-1.55,2.63,0,1.46.79,2.45,1.94,2.45s2.38-.69,2.96-1.69c.37-.65.53-1.62.53-3.14v-1.09Z"/>
        <path class="cls-1" d="M147.6,172.48c1.53-.05,1.64-.23,1.64-2.38v-11.26c0-1.13-.09-1.69-.35-1.9-.16-.14-.51-.19-1.29-.21v-.51l3.7-.19c-.09,1.55-.14,3.4-.14,4.62v9.43c0,2.15.12,2.33,1.66,2.38v.51h-5.22v-.51Z"/>
        <path class="cls-1" d="M165.31,163.05c.88-1.36,2.17-2.06,3.79-2.06,2.96,0,4.74,2.2,4.74,5.83,0,1.8-.46,3.45-1.29,4.6-.83,1.13-2.24,1.78-3.81,1.78-1.36,0-2.15-.35-3.42-1.5v3.38c0,2.15.12,2.29,1.78,2.36v.53h-5.34v-.53c1.57-.05,1.69-.21,1.69-2.36v-11.17c0-1.73-.28-2.08-1.6-2.08v-.51l3.47-.25v1.99ZM168.55,172.58c2.1,0,3.14-1.85,3.14-5.5s-.97-5.43-2.94-5.43c-1.06,0-2.08.58-2.64,1.5-.6.99-.9,2.31-.9,4.04,0,3.58,1.13,5.39,3.33,5.39Z"/>
        <path class="cls-1" d="M179.25,163.47c1.09-1.78,2.22-2.47,4.12-2.47,1.69,0,2.82.58,3.38,1.67.28.58.42,1.55.42,2.82v4.62c0,2.15.12,2.33,1.66,2.38v.51h-5.25v-.51c1.57-.05,1.69-.21,1.69-2.38v-4.65c0-1.18-.12-2.03-.37-2.5-.37-.74-1.04-1.11-2.03-1.11-.92,0-1.73.32-2.29.9-.46.49-.86,1.18-1.09,1.9-.16.51-.23.97-.23,1.73v3.72c0,2.17.12,2.33,1.66,2.38v.51h-5.25v-.51c1.57-.05,1.69-.21,1.69-2.38v-11.26c0-1.96-.09-2.08-1.69-2.1v-.51l3.7-.19c-.09,1.76-.12,2.61-.12,4.62v2.8Z"/>
        <path class="cls-1" d="M192.17,162.54c.97-.99,2.43-1.55,4.02-1.55,3.38,0,5.59,2.38,5.59,6.01,0,3.86-2.22,6.29-5.73,6.29s-5.57-2.38-5.57-5.96c0-1.92.62-3.7,1.69-4.79ZM196.12,172.74c2.26,0,3.51-1.96,3.51-5.52s-1.29-5.69-3.56-5.69-3.44,1.96-3.44,5.5,1.27,5.71,3.49,5.71Z"/>
        <path class="cls-1" d="M207.17,169.71c0,1.36.07,1.97.3,2.29.23.32.6.49,1.13.49s.95-.12,1.46-.42l.21.6c-.76.39-1.5.58-2.33.58-1.13,0-1.99-.39-2.38-1.13-.25-.46-.32-.97-.32-2.68v-7.49h-1.46v-.53c1.36-.12,2.06-1.02,2.4-3.19l1.06-.3c-.05.99-.07,1.87-.07,3.4h2.77v.62h-2.77v7.77Z"/>
        <path class="cls-1" d="M213.41,162.54c.97-.99,2.43-1.55,4.02-1.55,3.38,0,5.59,2.38,5.59,6.01,0,3.86-2.22,6.29-5.73,6.29s-5.57-2.38-5.57-5.96c0-1.92.62-3.7,1.69-4.79ZM217.37,172.74c2.26,0,3.51-1.96,3.51-5.52s-1.29-5.69-3.56-5.69-3.44,1.96-3.44,5.5,1.27,5.71,3.49,5.71Z"/>
        <path class="cls-1" d="M225.43,169.34h.72c.09,1.09.25,1.64.65,2.15.6.83,1.46,1.25,2.52,1.25,1.57,0,2.52-.81,2.52-2.17,0-.53-.21-1.04-.55-1.34-.42-.35-.49-.37-2.59-1.29-2.5-1.09-3.26-1.92-3.26-3.49,0-.81.23-1.59.62-2.13.62-.83,1.71-1.32,2.87-1.32.6,0,.9.05,2.15.28.19.02.35.05.49.05.28,0,.65-.05,1.11-.16l-.12,3.65h-.76c-.05-2.06-1.06-3.28-2.75-3.28-1.43,0-2.36.81-2.36,2.06,0,.53.21.95.62,1.25.44.32.88.55,2.4,1.2,1.55.65,2.13.99,2.66,1.57.49.53.76,1.29.76,2.2,0,2.13-1.41,3.49-3.58,3.49-.65,0-.95-.05-2.31-.28-.32-.05-.6-.07-.86-.07s-.58.02-1.04.09l.09-3.7Z"/>
      </g>
    </g>
  </g>
</svg>

<svg width="349" height="178" viewBox="0 0 349 178" fill="none" xmlns="http://www.w3.org/2000/svg">
<path d="M0.8 116.75L0 116.15C0.15 115.95 14.79 96.5102 35.62 82.6202C44.69 76.5702 63.27 65.9202 85.82 62.5402C104.01 59.8102 120.91 60.8302 136.04 65.5602C150.23 69.9902 163 76.8602 165.64 78.3202C166.84 75.3702 172.98 60.6002 180.46 47.7802C188.26 34.4102 205.74 16.1202 225.69 7.57016C231.92 4.90016 254.74 -3.41984 286.96 1.54016C307.57 4.71016 326 16.1802 331.16 19.6202C337.11 23.5902 348.09 32.5602 348.2 32.6502L347.57 33.4202C347.46 33.3302 336.52 24.3902 330.61 20.4502C325.49 17.0402 307.22 5.67016 286.81 2.53016C254.85 -2.38984 232.25 5.85016 226.08 8.50016C206.34 16.9602 189.03 35.0602 181.32 48.2902C173.05 62.4702 166.42 79.0602 166.35 79.2202L166.14 79.7602L165.64 79.4702C165.5 79.3902 151.5 71.4402 135.74 66.5102C120.75 61.8302 104 60.8202 85.96 63.5302C63.6 66.8802 45.16 77.4502 36.16 83.4502C15.49 97.2502 0.95 116.56 0.8 116.75Z" fill="black"/>
<path d="M283.97 54.8401C284.72 53.3701 286.82 49.0301 287.67 44.7601C288.72 39.5101 287.67 34.2601 284.52 32.1601C282.57 30.8601 279.27 31.1101 278.15 32.1601C276.48 33.7301 275.07 35.3101 274.02 41.6101C273.45 45.0001 273.63 48.9001 273.82 51.1901C273.03 51.1101 272.22 51.0601 271.4 51.0601C270.58 51.0601 269.78 51.1101 268.98 51.1901C269.17 48.9001 269.34 45.0001 268.78 41.6101C267.73 35.3101 266.32 33.7301 264.65 32.1601C263.53 31.1101 260.24 30.8601 258.28 32.1601C255.13 34.2601 254.08 39.5101 255.13 44.7601C255.98 49.0301 258.08 53.3701 258.83 54.8401C253.41 58.4601 249.87 64.3501 249.87 71.0101C249.87 82.0301 259.51 90.9601 271.39 90.9601C283.27 90.9601 292.92 82.0301 292.92 71.0101C292.92 64.3501 289.38 58.4601 283.96 54.8401H283.97Z" fill="#1A0CA3"/>
<path d="M78.17 112.36C81.54 106.46 85.3 104.24 91.66 104.24C96.49 104.24 99.63 105.7 101.7 108.99C103.16 111.21 103.69 113.89 103.69 118.57V134.43C103.69 141.63 104.07 142.17 109.28 142.32V144.01H91.88V142.32C94.41 142.24 95.79 141.94 96.4 141.17C96.86 140.56 97.09 139.94 97.17 138.64C97.25 137.8 97.4 134.96 97.4 134.43V119.03C97.4 115.2 97.02 112.52 96.17 110.75C94.94 108.07 92.65 106.69 89.43 106.69C85.83 106.69 82.92 108.38 80.77 111.82C79.16 114.35 78.16 118.03 78.16 121.17V134.43C78.16 141.63 78.54 142.17 83.75 142.32V144.01H66.28V142.32C71.41 142.17 71.87 141.55 71.87 134.43V113.89C71.87 108.14 70.95 106.99 66.58 106.99V105.3L78.15 104.46V112.35L78.17 112.36Z" fill="black"/>
<path d="M120.31 109.37C123.53 106.08 128.36 104.24 133.64 104.24C144.83 104.24 152.18 112.13 152.18 124.16C152.18 136.96 144.82 145 133.18 145C121.54 145 114.71 137.11 114.71 125.23C114.71 118.87 116.78 112.97 120.3 109.37H120.31ZM133.41 143.17C140.92 143.17 145.06 136.66 145.06 124.86C145.06 113.06 140.77 106.01 133.26 106.01C125.75 106.01 121.84 112.52 121.84 124.25C121.84 135.98 126.05 143.18 133.41 143.18V143.17Z" fill="black"/>
<path d="M160 120.1H176.93V124.31H160V120.1Z" fill="black"/>
<path d="M195.32 133.13C195.32 137.65 195.55 139.64 196.32 140.72C197.09 141.79 198.31 142.33 200.07 142.33C201.83 142.33 203.21 141.95 204.9 140.95L205.59 142.94C203.06 144.24 200.61 144.86 197.85 144.86C194.1 144.86 191.26 143.56 189.96 141.11C189.12 139.58 188.89 137.89 188.89 132.22V107.39H184.06V105.63C188.58 105.25 190.88 102.26 192.03 95.0601L195.56 94.0601C195.41 97.3501 195.33 100.27 195.33 105.32H204.53V107.39H195.33V133.14L195.32 133.13Z" fill="black"/>
<path d="M216.01 109.37C219.23 106.08 224.06 104.24 229.34 104.24C240.53 104.24 247.88 112.13 247.88 124.16C247.88 136.96 240.52 145 228.88 145C217.24 145 210.41 137.11 210.41 125.23C210.41 118.87 212.48 112.97 216 109.37H216.01ZM229.12 143.17C236.63 143.17 240.77 136.66 240.77 124.86C240.77 113.06 236.48 106.01 228.97 106.01C221.46 106.01 217.55 112.52 217.55 124.25C217.55 135.98 221.76 143.18 229.12 143.18V143.17Z" fill="black"/>
<path d="M81.15 166.47C81.17 168.07 81.31 168.99 81.68 169.94C82.35 171.65 83.48 172.48 85.15 172.48C86.82 172.48 88.04 171.62 88.96 169.87L89.49 170.17C88.45 172.3 86.88 173.29 84.61 173.29C81.3 173.29 79.04 170.84 79.04 167.3C79.04 163.55 81.26 160.99 84.52 160.99C86.62 160.99 88.22 162.05 88.94 163.93C89.17 164.55 89.26 165.11 89.31 166.47H81.15ZM87.3 165.85C87.28 164.63 87.16 163.95 86.86 163.28C86.35 162.15 85.57 161.57 84.48 161.57C83.39 161.57 82.45 162.19 81.82 163.37C81.47 164.04 81.33 164.64 81.2 165.84H87.3V165.85Z" fill="black"/>
<path d="M94.5799 169.71C94.5799 171.07 94.6499 171.68 94.8799 172C95.1099 172.32 95.4799 172.49 96.0099 172.49C96.5399 172.49 96.9599 172.37 97.4699 172.07L97.6799 172.67C96.9199 173.06 96.1799 173.25 95.3499 173.25C94.2199 173.25 93.3599 172.86 92.9699 172.12C92.7199 171.66 92.6499 171.15 92.6499 169.44V161.95H91.1899V161.42C92.5499 161.3 93.2499 160.4 93.5899 158.23L94.6499 157.93C94.5999 158.92 94.5799 159.8 94.5799 161.33H97.3499V161.95H94.5799V169.72V169.71Z" fill="black"/>
<path d="M101.28 166.47C101.3 168.07 101.44 168.99 101.81 169.94C102.48 171.65 103.61 172.48 105.28 172.48C106.95 172.48 108.17 171.62 109.09 169.87L109.62 170.17C108.58 172.3 107.01 173.29 104.74 173.29C101.43 173.29 99.1699 170.84 99.1699 167.3C99.1699 163.55 101.39 160.99 104.65 160.99C106.75 160.99 108.35 162.05 109.07 163.93C109.3 164.55 109.39 165.11 109.44 166.47H101.28ZM107.43 165.85C107.41 164.63 107.29 163.95 106.99 163.28C106.48 162.15 105.7 161.57 104.61 161.57C103.52 161.57 102.58 162.19 101.95 163.37C101.6 164.04 101.46 164.64 101.33 165.84H107.43V165.85Z" fill="black"/>
<path d="M114.69 161.06C114.74 162.22 114.76 162.52 114.76 163V163.74C115.52 161.98 116.77 160.99 118.14 160.99C119.13 160.99 119.9 161.61 119.9 162.42C119.9 163 119.41 163.37 118.67 163.37C118.16 163.37 117.95 163.23 117.81 162.79C117.67 162.28 117.53 162.14 117.16 162.14C116.56 162.14 115.91 162.65 115.43 163.53C115.01 164.29 114.81 165.24 114.81 166.47V170.1C114.81 172.27 114.93 172.43 116.47 172.48V172.99H111.18V172.48C112.73 172.43 112.87 172.25 112.87 170.1V163.9C112.87 162.17 112.59 161.82 111.28 161.82V161.31L114.7 161.06H114.69Z" fill="black"/>
<path d="M124.21 163.44C125.23 161.66 126.36 160.99 128.28 160.99C129.74 160.99 130.68 161.43 131.31 162.42C131.75 163.09 131.91 163.9 131.91 165.31V170.1C131.91 172.27 132.03 172.43 133.6 172.48V172.99H128.35V172.48C129.11 172.46 129.53 172.36 129.71 172.13C129.85 171.95 129.92 171.76 129.94 171.37C129.96 171.12 130.01 170.26 130.01 170.1V165.45C130.01 164.29 129.89 163.49 129.64 162.95C129.27 162.14 128.58 161.73 127.61 161.73C126.52 161.73 125.65 162.24 125 163.28C124.51 164.04 124.21 165.15 124.21 166.1V170.1C124.21 172.27 124.33 172.43 125.9 172.48V172.99H120.63V172.48C122.18 172.43 122.32 172.25 122.32 170.1V163.9C122.32 162.17 122.04 161.82 120.72 161.82V161.31L124.21 161.06V163.44Z" fill="black"/>
<path d="M146.01 172.94C145.11 173.08 144.09 173.17 143.63 173.17C142.94 173.17 142.75 172.8 142.66 171.25C142.29 171.67 141.99 171.92 141.53 172.24C140.51 172.98 139.7 173.23 138.52 173.23C137.5 173.23 136.74 173 136.16 172.51C135.54 171.96 135.14 171.03 135.14 170.06C135.14 168.23 136.3 167.06 138.54 166.55C139.74 166.27 140.97 166.11 142.65 166V164.54C142.65 163.48 142.56 162.92 142.33 162.44C142.03 161.84 141.38 161.54 140.43 161.54C138.9 161.54 138.12 162.23 138.03 163.67C138.01 164.16 137.96 164.32 137.78 164.46C137.62 164.58 137.32 164.64 136.97 164.64C136.18 164.64 135.84 164.43 135.84 163.95C135.84 163.12 136.44 162.29 137.41 161.73C138.29 161.24 139.42 160.99 140.79 160.99C142.27 160.99 143.33 161.34 143.89 162.01C144.35 162.59 144.56 163.35 144.56 164.62C144.56 164.667 144.543 165.444 144.51 166.95L144.49 169.15L144.47 170.21C144.47 171.18 144.59 172.01 144.72 172.2C144.85 172.39 145.14 172.45 146.01 172.45V172.94ZM142.66 166.54C140.6 166.73 139.7 166.91 138.78 167.37C137.76 167.86 137.23 168.78 137.23 170C137.23 171.46 138.02 172.45 139.17 172.45C140.32 172.45 141.55 171.76 142.13 170.76C142.5 170.11 142.66 169.14 142.66 167.62V166.53V166.54Z" fill="black"/>
<path d="M147.6 172.48C149.13 172.43 149.24 172.25 149.24 170.1V158.84C149.24 157.71 149.15 157.15 148.89 156.94C148.73 156.8 148.38 156.75 147.6 156.73V156.22L151.3 156.03C151.21 157.58 151.16 159.43 151.16 160.65V170.08C151.16 172.23 151.28 172.41 152.82 172.46V172.97H147.6V172.46V172.48Z" fill="black"/>
<path d="M165.31 163.05C166.19 161.69 167.48 160.99 169.1 160.99C172.06 160.99 173.84 163.19 173.84 166.82C173.84 168.62 173.38 170.27 172.55 171.42C171.72 172.55 170.31 173.2 168.74 173.2C167.38 173.2 166.59 172.85 165.32 171.7V175.08C165.32 177.23 165.44 177.37 167.1 177.44V177.97H161.76V177.44C163.33 177.39 163.45 177.23 163.45 175.08V163.91C163.45 162.18 163.17 161.83 161.85 161.83V161.32L165.32 161.07V163.06L165.31 163.05ZM168.55 172.58C170.65 172.58 171.69 170.73 171.69 167.08C171.69 163.43 170.72 161.65 168.75 161.65C167.69 161.65 166.67 162.23 166.11 163.15C165.51 164.14 165.21 165.46 165.21 167.19C165.21 170.77 166.34 172.58 168.54 172.58H168.55Z" fill="black"/>
<path d="M179.25 163.47C180.34 161.69 181.47 161 183.37 161C185.06 161 186.19 161.58 186.75 162.67C187.03 163.25 187.17 164.22 187.17 165.49V170.11C187.17 172.26 187.29 172.44 188.83 172.49V173H183.58V172.49C185.15 172.44 185.27 172.28 185.27 170.11V165.46C185.27 164.28 185.15 163.43 184.9 162.96C184.53 162.22 183.86 161.85 182.87 161.85C181.95 161.85 181.14 162.17 180.58 162.75C180.12 163.24 179.72 163.93 179.49 164.65C179.33 165.16 179.26 165.62 179.26 166.38V170.1C179.26 172.27 179.38 172.43 180.92 172.48V172.99H175.67V172.48C177.24 172.43 177.36 172.27 177.36 170.1V158.84C177.36 156.88 177.27 156.76 175.67 156.74V156.23L179.37 156.04C179.28 157.8 179.25 158.65 179.25 160.66V163.46V163.47Z" fill="black"/>
<path d="M192.17 162.54C193.14 161.55 194.6 160.99 196.19 160.99C199.57 160.99 201.78 163.37 201.78 167C201.78 170.86 199.56 173.29 196.05 173.29C192.54 173.29 190.48 170.91 190.48 167.33C190.48 165.41 191.1 163.63 192.17 162.54ZM196.12 172.74C198.38 172.74 199.63 170.78 199.63 167.22C199.63 163.66 198.34 161.53 196.07 161.53C193.8 161.53 192.63 163.49 192.63 167.03C192.63 170.57 193.9 172.74 196.12 172.74Z" fill="black"/>
<path d="M207.17 169.71C207.17 171.07 207.24 171.68 207.47 172C207.7 172.32 208.07 172.49 208.6 172.49C209.13 172.49 209.55 172.37 210.06 172.07L210.27 172.67C209.51 173.06 208.77 173.25 207.94 173.25C206.81 173.25 205.95 172.86 205.56 172.12C205.31 171.66 205.24 171.15 205.24 169.44V161.95H203.78V161.42C205.14 161.3 205.84 160.4 206.18 158.23L207.24 157.93C207.19 158.92 207.17 159.8 207.17 161.33H209.94V161.95H207.17V169.72V169.71Z" fill="black"/>
<path d="M213.41 162.54C214.38 161.55 215.84 160.99 217.43 160.99C220.81 160.99 223.02 163.37 223.02 167C223.02 170.86 220.8 173.29 217.29 173.29C213.78 173.29 211.72 170.91 211.72 167.33C211.72 165.41 212.34 163.63 213.41 162.54ZM217.37 172.74C219.63 172.74 220.88 170.78 220.88 167.22C220.88 163.66 219.59 161.53 217.32 161.53C215.05 161.53 213.88 163.49 213.88 167.03C213.88 170.57 215.15 172.74 217.37 172.74Z" fill="black"/>
<path d="M225.43 169.34H226.15C226.24 170.43 226.4 170.98 226.8 171.49C227.4 172.32 228.26 172.74 229.32 172.74C230.89 172.74 231.84 171.93 231.84 170.57C231.84 170.04 231.63 169.53 231.29 169.23C230.87 168.88 230.8 168.86 228.7 167.94C226.2 166.85 225.44 166.02 225.44 164.45C225.44 163.64 225.67 162.86 226.06 162.32C226.68 161.49 227.77 161 228.93 161C229.53 161 229.83 161.05 231.08 161.28C231.27 161.3 231.43 161.33 231.57 161.33C231.85 161.33 232.22 161.28 232.68 161.17L232.56 164.82H231.8C231.75 162.76 230.74 161.54 229.05 161.54C227.62 161.54 226.69 162.35 226.69 163.6C226.69 164.13 226.9 164.55 227.31 164.85C227.75 165.17 228.19 165.4 229.71 166.05C231.26 166.7 231.84 167.04 232.37 167.62C232.86 168.15 233.13 168.91 233.13 169.82C233.13 171.95 231.72 173.31 229.55 173.31C228.9 173.31 228.6 173.26 227.24 173.03C226.92 172.98 226.64 172.96 226.38 172.96C226.12 172.96 225.8 172.98 225.34 173.05L225.43 169.35V169.34Z" fill="black"/>
</svg>
